X: 133
T: a Trip to Wimbleton
%%VWML:Wrights-3753-p67-0
F: http://www.vwml.org/record/Wrights/3753/p67
N: The page has "Tript"; the index has "Trip". Also, the "o" looks like 'e' that has been overwritten. %R: march, reel
B: Daniel Wright "Wright's Compleat Collection of Celebrated Country Dances" 1740 p.67
S: http://library.efdss.org/cgi-bin/dancebooks.cgi
Z: 2014 John Chambers <jc:trillian.mit.edu>
N: Repeats modified to match the "Each strain twice" instruction.
M: C|
L: 1/8
K: F
%-------------------------
fg |\
a2f2 c2f2 | f4 A4 | BcdB GABG | ABAG F2fg |\
a2f2 b2a2 | g4 f4 | efg2 G2=B2 | c6 :|
|: cB |\
A2c2 f2c2 | d4 c4 | Bcd2 g2b2 | e4 c4 |\
a2 f4 d2 | b2 g4 f2 | efg2 c2e2 | f6 :| %-------------------------
%%center Each strain twice.
%%begintext align
%% The 1st Man cast off below the 2d Man the 2d %% Wo. cast up at the same time and turn 2d
%% Man .| then 1st Wo. and 2d Man do the same :| %% the 1st Man change place with the 2d Wo. and %% the 1st Wo. with the 2d Man and follow
%% quite round and cast off .| then lead through %% 3d Cu. right and left quite round with the
%% 3d Cu. and turn partners. :|
%%endtext
%-------------------------
%%sep 2 4 300
T: the Red Ribbon
T: Longways for &c.
%R: jig
B: Daniel Wright "Wright's Compleat Collection of Celebrated Country Dances" 1740 p.67
S: http://library.efdss.org/cgi-bin/dancebooks.cgi
Z: 2014 John Chambers <jc:trillian.mit.edu>
N: Repeats modified to match the "Each strain twice" instruction.
M: 6/8
L: 1/8
K: Em
%-------------------------
|:\
e2B B2A | GFG E2B | efg f2e | ^def B3 |\
gfe d2c | B3 g3 | dcB AGF | G3- G3 :|
|:\
BAG B2c | de^c d3 | AGF A2B | cBA B2f |\
gfe ^def | A3 ABc | BAG F2E | E3- E3 :|
%-------------------------
%%center Each strain twice.
%%begintext align
%% The 1st Cu. cross over and turn hands round
%% all four, and back again with 3d Cu. in 2d Cu.
%% place .| the 2d Cu. do the same :| the 1st Cu.
%% being at top cross over and turn hand sides
%% half round, and back again into the 2d Cu.
%% place .| the other two do the same, which
%% brings them into the 2d Cu. place, the 1st
%% Cu. cast off :|
%%endtext
%-------------------------
%%sep 2 4 300
